X:6
T:No.6 The Mullingar Races
C:reel
M:4/4
L:1/8
K:D
DEED E A,3|DEFA Bcde|f2 ec dBAF|dBAF EGFE|
DEED E A,3|DEFA Bcde|f2 ec dBAG|FGEF D4:|
d2 fd adfd|afdf edBc|d2 fd adfd|efee egfe|
d2 fd adfd|afdf edBc|dgfe dBAG|FGEF D4:|
